src/assets/icons/prototype.svg

<?xml version="1.0" encoding="utf-8"?>
<!-- Generator: Adobe Illustrator 21.0.0, SVG Export Plug-In . SVG Version: 6.00 Build 0)  -->
<svg version="1.1" id="Layer_1" xmlns="http://www.w3.org/2000/svg" xmlns:xlink="http://www.w3.org/1999/xlink" x="0px" y="0px"
	 viewBox="0 0 78 66" style="enable-background:new 0 0 78 66;" xml:space="preserve">
<style type="text/css">
	.st0{fill:#FFFFFF;}
</style>
<title>noun_229087_cc</title>
<desc>Created with Sketch.</desc>
<g id="Page-1">
	<g id="noun_229087_cc">
		<g id="Group">
			<path id="Shape" class="st0" d="M21.2,14.4h-13C7.5,14.4,7,15,7,15.6v25.8c0,0.7,0.6,1.2,1.2,1.2h13c0.7,0,1.2-0.6,1.2-1.2V15.7
				C22.4,15,21.9,14.4,21.2,14.4z M19.9,40.2H9.4V16.9h10.5V40.2z"/>
			<polygon id="Shape_1_" class="st0" points="53,15.7 53,14.4 27.1,14.4 27.1,15.7 27.1,16.9 53,16.9 			"/>
			<polygon id="Shape_2_" class="st0" points="61.6,21.2 61.6,19.9 27.1,19.9 27.1,21.2 27.1,22.4 61.6,22.4 			"/>
			<rect id="Rectangle-path" x="35.3" y="40.3" class="st0" width="7.4" height="2.5"/>
			<path id="Shape_3_" class="st0" d="M29.9,36.3h-2.5v5.2c0,0.7,0.6,1.2,1.2,1.2h3.2v-2.5h-2v-3.9H29.9z"/>
			<path id="Shape_4_" class="st0" d="M27.4,28.3v5.2h2.5v-4h2V27h-3.2C27.9,27.1,27.4,27.6,27.4,28.3z"/>
			<rect id="Rectangle-path_1_" x="46.1" y="27.1" class="st0" width="7.4" height="2.5"/>
			<rect id="Rectangle-path_2_" x="35.3" y="27.1" class="st0" width="7.4" height="2.5"/>
			<path id="Shape_5_" class="st0" d="M60.1,27.1h-3.2v2.5h2v2h2.5v-3.2C61.4,27.6,60.8,27.1,60.1,27.1z"/>
			<path id="Shape_6_" class="st0" d="M77.6,53.5c0-0.4-0.2-0.8-0.5-1.1L73.9,50V35.7c0-0.7-0.6-1.2-1.2-1.2h-3.2V8.7V2
				c0-0.7-0.6-1.2-1.2-1.2H1.7C1,0.8,0.5,1.4,0.5,2v6.7V48c0,0.7,0.6,1.2,1.2,1.2h32V56H15.9c-0.7,0-1.2,0.6-1.2,1.2v6
				c0,0.7,0.6,1.2,1.2,1.2h37.9c0.7,0,1.2-0.6,1.2-1.2v-6c0-0.7-0.6-1.2-1.2-1.2H36.1v-6.8h16.6v3.4c0,0.7,0.6,1.2,1.2,1.2h10.9
				l0.4,5.7c0,0.4,0.3,0.8,0.7,1c0.2,0.1,0.4,0.1,0.6,0.1s0.5-0.1,0.7-0.2l3.9-2.4l3.7,6.6c0.2,0.4,0.7,0.6,1.1,0.6
				c0.2,0,0.4-0.1,0.6-0.2c0.6-0.3,0.8-1.1,0.5-1.7l-3.8-6.7l3.7-2.3C77.3,54.3,77.6,53.9,77.6,53.5z M71.1,55.2
				C71,55.2,71,55.2,71.1,55.2c-0.1,0.1-0.2,0.1-0.2,0.1l-3.2,1.9l-0.2-3.4l-0.1-1.2l-0.1-1.2l-0.2-2.1L67,48.1l1.4,1.1l2.9,2.1
				l1.2,0.9l1.1,0.9l0.4,0.3L71.1,55.2z M55.2,51.3v-2.1V48v-1.2V37h11.7h1.2h1.2h1.9v11.3l-1.9-1.4L68.1,46l-1.2-0.9l-0.6-0.4
				c-0.4-0.3-0.9-0.3-1.3-0.1c-0.4,0.2-0.7,0.7-0.6,1.2l0.1,1.2l0.1,1.2l0.1,1.2l0.2,2.1h-9.7V51.3z M2.9,3.2h64v4.2h-64V3.2z
				 M2.9,9.9h64v24.5h-5.5v-1.2h-2.5v1.2H54c-0.7,0-1.2,0.6-1.2,1.2v4.6h-6.7v2.5h6.7v3.9H2.9V9.9z M52.6,62H17.2v-3.5h35.4V62z"/>
		</g>
	</g>
</g>
</svg>

<?xml version="1.0" encoding="UTF-8"?>
<svg width="78px" height="66px" viewBox="0 0 78 66" version="1.1" xmlns="http://www.w3.org/2000/svg" xmlns:xlink="http://www.w3.org/1999/xlink">
    <!-- Generator: Sketch 48.2 (47327) - http://www.bohemiancoding.com/sketch -->
    <title>noun_229087_cc</title>
    <desc>Created with Sketch.</desc>
    <defs></defs>
    <g id="Page-1" stroke="none" stroke-width="1" fill="none" fill-rule="evenodd">
        <g id="noun_229087_cc" fill="#000000" fill-rule="nonzero">
            <g id="Group">
                <path d="M21.2,14.4 L8.2,14.4 C7.5,14.4 7,15 7,15.6 L7,41.4 C7,42.1 7.6,42.6 8.2,42.6 L21.2,42.6 C21.9,42.6 22.4,42 22.4,41.4 L22.4,15.7 C22.4,15 21.9,14.4 21.2,14.4 Z M19.9,40.2 L9.4,40.2 L9.4,16.9 L19.9,16.9 L19.9,40.2 Z" id="Shape"></path>
                <polygon id="Shape" points="53 15.7 53 14.4 27.1 14.4 27.1 15.7 27.1 16.9 53 16.9"></polygon>
                <polygon id="Shape" points="61.6 21.2 61.6 19.9 27.1 19.9 27.1 21.2 27.1 22.4 61.6 22.4"></polygon>
                <rect id="Rectangle-path" x="35.3" y="40.3" width="7.4" height="2.5"></rect>
                <path d="M29.9,36.3 L27.4,36.3 L27.4,41.5 C27.4,42.2 28,42.7 28.6,42.7 L31.8,42.7 L31.8,40.2 L29.8,40.2 L29.8,36.3 L29.9,36.3 Z" id="Shape"></path>
                <path d="M27.4,28.3 L27.4,33.5 L29.9,33.5 L29.9,29.5 L31.9,29.5 L31.9,27 L28.7,27 C27.9,27.1 27.4,27.6 27.4,28.3 Z" id="Shape"></path>
                <rect id="Rectangle-path" x="46.1" y="27.1" width="7.4" height="2.5"></rect>
                <rect id="Rectangle-path" x="35.3" y="27.1" width="7.4" height="2.5"></rect>
                <path d="M60.1,27.1 L56.9,27.1 L56.9,29.6 L58.9,29.6 L58.9,31.6 L61.4,31.6 L61.4,28.4 C61.4,27.6 60.8,27.1 60.1,27.1 Z" id="Shape"></path>
                <path d="M77.6,53.5 C77.6,53.1 77.4,52.7 77.1,52.4 L73.9,50 L73.9,35.7 C73.9,35 73.3,34.5 72.7,34.5 L69.5,34.5 L69.5,8.7 L69.5,2 C69.5,1.3 68.9,0.8 68.3,0.8 L1.7,0.8 C1,0.8 0.5,1.4 0.5,2 L0.5,8.7 L0.5,48 C0.5,48.7 1.1,49.2 1.7,49.2 L33.7,49.2 L33.7,56 L15.9,56 C15.2,56 14.7,56.6 14.7,57.2 L14.7,63.2 C14.7,63.9 15.3,64.4 15.9,64.4 L53.8,64.4 C54.5,64.4 55,63.8 55,63.2 L55,57.2 C55,56.5 54.4,56 53.8,56 L36.1,56 L36.1,49.2 L52.7,49.2 L52.7,52.6 C52.7,53.3 53.3,53.8 53.9,53.8 L64.8,53.8 L65.2,59.5 C65.2,59.9 65.5,60.3 65.9,60.5 C66.1,60.6 66.3,60.6 66.5,60.6 C66.7,60.6 67,60.5 67.2,60.4 L71.1,58 L74.8,64.6 C75,65 75.5,65.2 75.9,65.2 C76.1,65.2 76.3,65.1 76.5,65 C77.1,64.7 77.3,63.9 77,63.3 L73.2,56.6 L76.9,54.3 C77.3,54.3 77.6,53.9 77.6,53.5 Z M71.1,55.2 C71,55.2 71,55.2 71.1,55.2 C71,55.3 70.9,55.3 70.9,55.3 L67.7,57.2 L67.5,53.8 L67.4,52.6 L67.3,51.4 L67.1,49.3 L67,48.1 L68.4,49.2 L71.3,51.3 L72.5,52.2 L73.6,53.1 L74,53.4 L71.1,55.2 Z M55.2,51.3 L55.2,49.2 L55.2,48 L55.2,46.8 L55.2,37 L66.9,37 L68.1,37 L69.3,37 L71.2,37 L71.2,48.3 L69.3,46.9 L68.1,46 L66.9,45.1 L66.3,44.7 C65.9,44.4 65.4,44.4 65,44.6 C64.6,44.8 64.3,45.3 64.4,45.8 L64.5,47 L64.6,48.2 L64.7,49.4 L64.9,51.5 L55.2,51.5 L55.2,51.3 Z M2.9,3.2 L66.9,3.2 L66.9,7.4 L2.9,7.4 L2.9,3.2 Z M2.9,9.9 L66.9,9.9 L66.9,34.4 L61.4,34.4 L61.4,33.2 L58.9,33.2 L58.9,34.4 L54,34.4 C53.3,34.4 52.8,35 52.8,35.6 L52.8,40.2 L46.1,40.2 L46.1,42.7 L52.8,42.7 L52.8,46.6 L2.9,46.6 L2.9,9.9 Z M52.6,62 L17.2,62 L17.2,58.5 L52.6,58.5 L52.6,62 Z" id="Shape"></path>
            </g>
        </g>
    </g>
</svg>
